Newaita-dark/apps/32/liri-browser.svg

<?xml version="1.0" encoding="UTF-8"?>
<svg xmlns="http://www.w3.org/2000/svg" xmlns:xlink="http://www.w3.org/1999/xlink" width="32pt" height="32pt" viewBox="0 0 32 32" version="1.1">
<defs>
<radialGradient id="radial0" gradientUnits="userSpaceOnUse" cx="450.908936" cy="189.579361" fx="450.908936" fy="189.579361" r="21.166656" gradientTransform="matrix(0.00000017417,-0.0781325,-0.140638,-0.000000101539,44.523152,63.595329)">
<stop offset="0" style="stop-color:rgb(0%,0%,0%);stop-opacity:0.313725;"/>
<stop offset="0.222222" style="stop-color:rgb(0%,0%,0%);stop-opacity:0.27451;"/>
<stop offset="1" style="stop-color:rgb(0%,0%,0%);stop-opacity:0;"/>
</radialGradient>
<radialGradient id="radial1" gradientUnits="userSpaceOnUse" cx="450.908936" cy="189.579361" fx="450.908936" fy="189.579361" r="21.166656" gradientTransform="matrix(-0.00000017417,0.0781325,0.140638,0.000000101539,-12.770119,-7.527482)">
<stop offset="0" style="stop-color:rgb(0%,0%,0%);stop-opacity:0.313725;"/>
<stop offset="0.222222" style="stop-color:rgb(0%,0%,0%);stop-opacity:0.27451;"/>
<stop offset="1" style="stop-color:rgb(0%,0%,0%);stop-opacity:0;"/>
</radialGradient>
<radialGradient id="radial2" gradientUnits="userSpaceOnUse" cx="450.908936" cy="189.579361" fx="450.908936" fy="189.579361" r="21.166656" gradientTransform="matrix(-0.00000017417,-0.0781325,0.140638,-0.000000101539,-12.770119,63.595329)">
<stop offset="0" style="stop-color:rgb(0%,0%,0%);stop-opacity:0.313725;"/>
<stop offset="0.222222" style="stop-color:rgb(0%,0%,0%);stop-opacity:0.27451;"/>
<stop offset="1" style="stop-color:rgb(0%,0%,0%);stop-opacity:0;"/>
</radialGradient>
<radialGradient id="radial3" gradientUnits="userSpaceOnUse" cx="450.908936" cy="189.579361" fx="450.908936" fy="189.579361" r="21.166656" gradientTransform="matrix(0.00000017417,0.0781325,-0.140638,0.000000101539,44.52315,-7.527483)">
<stop offset="0" style="stop-color:rgb(0%,0%,0%);stop-opacity:0.313725;"/>
<stop offset="0.222222" style="stop-color:rgb(0%,0%,0%);stop-opacity:0.27451;"/>
<stop offset="1" style="stop-color:rgb(0%,0%,0%);stop-opacity:0;"/>
</radialGradient>
<linearGradient id="linear0" gradientUnits="userSpaceOnUse" x1="255.323059" y1="233.5" x2="255.323044" y2="254.666656" gradientTransform="matrix(0.0133601,0,0,0.062506,12.465386,13.438784)">
<stop offset="0" style="stop-color:rgb(0%,0%,0%);stop-opacity:0.27451;"/>
<stop offset="1" style="stop-color:rgb(0%,0%,0%);stop-opacity:0;"/>
</linearGradient>
<linearGradient id="linear1" gradientUnits="userSpaceOnUse" x1="254" y1="-168.666672" x2="254" y2="233.5" >
<stop offset="0" style="stop-color:rgb(68.235294%,83.529412%,50.588235%);stop-opacity:1;"/>
<stop offset="1" style="stop-color:rgb(61.176471%,80%,39.607843%);stop-opacity:1;"/>
</linearGradient>
<linearGradient id="linear2" gradientUnits="userSpaceOnUse" x1="960" y1="1695.118164" x2="959.999939" y2="335.118103" >
<stop offset="0" style="stop-color:rgb(25.882353%,64.705882%,96.078431%);stop-opacity:1;"/>
<stop offset="1" style="stop-color:rgb(39.215686%,70.980392%,96.470588%);stop-opacity:1;"/>
</linearGradient>
<linearGradient id="linear3" gradientUnits="userSpaceOnUse" x1="1320" y1="1695.118164" x2="1320" y2="175.118134" >
<stop offset="0" style="stop-color:rgb(32.941176%,43.137255%,47.843137%);stop-opacity:1;"/>
<stop offset="1" style="stop-color:rgb(37.647059%,49.019608%,54.509804%);stop-opacity:1;"/>
</linearGradient>
<linearGradient id="linear4" gradientUnits="userSpaceOnUse" x1="275.166656" y1="-84" x2="275.166656" y2="-126.333344" >
<stop offset="0" style="stop-color:rgb(87.843137%,87.843137%,87.843137%);stop-opacity:1;"/>
<stop offset="1" style="stop-color:rgb(93.333333%,93.333333%,93.333333%);stop-opacity:1;"/>
</linearGradient>
<linearGradient id="linear5" gradientUnits="userSpaceOnUse" x1="275.166656" y1="-84" x2="275.166656" y2="-126.333344" gradientTransform="matrix(1,0,0,1,74.083328,10.583339)">
<stop offset="0" style="stop-color:rgb(87.843137%,87.843137%,87.843137%);stop-opacity:1;"/>
<stop offset="1" style="stop-color:rgb(93.333333%,93.333333%,93.333333%);stop-opacity:1;"/>
</linearGradient>
<linearGradient id="linear6" gradientUnits="userSpaceOnUse" x1="275.166656" y1="-84" x2="275.166656" y2="-126.333344" gradientTransform="matrix(1,0,0,1,52.916672,63.500008)">
<stop offset="0" style="stop-color:rgb(87.843137%,87.843137%,87.843137%);stop-opacity:1;"/>
<stop offset="1" style="stop-color:rgb(93.333333%,93.333333%,93.333333%);stop-opacity:1;"/>
</linearGradient>
<linearGradient id="linear7" gradientUnits="userSpaceOnUse" x1="275.166656" y1="-84" x2="275.166656" y2="-126.333344" gradientTransform="matrix(1,0,0,1,127.000008,84.666672)">
<stop offset="0" style="stop-color:rgb(87.843137%,87.843137%,87.843137%);stop-opacity:1;"/>
<stop offset="1" style="stop-color:rgb(93.333333%,93.333333%,93.333333%);stop-opacity:1;"/>
</linearGradient>
<linearGradient id="linear8" gradientUnits="userSpaceOnUse" x1="275.166656" y1="-84" x2="275.166656" y2="-126.333344" gradientTransform="matrix(1,0,0,1,105.833344,148.166687)">
<stop offset="0" style="stop-color:rgb(87.843137%,87.843137%,87.843137%);stop-opacity:1;"/>
<stop offset="1" style="stop-color:rgb(93.333333%,93.333333%,93.333333%);stop-opacity:1;"/>
</linearGradient>
</defs>
<g id="surface1">
<path style=" stroke:none;fill-rule:nonzero;fill:url(#radial0);" d="M 18.191406 28.035156 L 20.839844 28.035156 L 20.839844 26.710938 L 18.191406 26.710938 Z M 18.191406 28.035156 "/>
<path style=" stroke:none;fill-rule:nonzero;fill:url(#radial1);" d="M 13.5625 28.035156 L 10.914062 28.035156 L 10.914062 29.355469 L 13.5625 29.355469 Z M 13.5625 28.035156 "/>
<path style=" stroke:none;fill-rule:nonzero;fill:url(#radial2);" d="M 13.5625 28.035156 L 10.914062 28.035156 L 10.914062 26.710938 L 13.5625 26.710938 Z M 13.5625 28.035156 "/>
<path style=" stroke:none;fill-rule:nonzero;fill:url(#radial3);" d="M 18.191406 28.035156 L 20.839844 28.035156 L 20.839844 29.355469 L 18.191406 29.355469 Z M 18.191406 28.035156 "/>
<path style=" stroke:none;fill-rule:nonzero;fill:url(#linear0);" d="M 13.5625 27.703125 L 18.191406 27.703125 L 18.191406 29.355469 L 13.5625 29.355469 Z M 13.5625 27.703125 "/>
<path style="fill-rule:nonzero;fill:url(#linear1);stroke-width:3;stroke-linecap:round;stroke-linejoin:miter;stroke:rgb(20%,20%,20%);stroke-opacity:1;stroke-miterlimit:4;" d="M 253.975747 -168.691922 C 365.027642 -168.691922 455.081542 -78.638022 455.081542 32.413873 C 455.081542 143.465768 365.027642 233.519669 253.975747 233.519669 C 142.923851 233.519669 52.932445 143.465768 52.932445 32.413873 C 52.932445 -78.638022 142.923851 -168.691922 253.975747 -168.691922 Z M 253.975747 -168.691922 " transform="matrix(0.062506,0,0,0.062506,0,13.438783)"/>
<path style="fill-rule:nonzero;fill:url(#linear2);stroke-width:11.338583;stroke-linecap:round;stroke-linejoin:miter;stroke:rgb(20%,20%,20%);stroke-opacity:1;stroke-miterlimit:4;" d="M 290.051057 575.141957 C 253.676576 642.694565 227.222408 716.624517 212.814334 794.806031 C 379.570072 869.916973 599.94274 855.036503 565.930238 1000.29823 C 479.954192 1255.155795 760.084936 1335.226893 839.919836 1335.226893 C 1037.8537 1379.159708 880.073484 1585.124302 959.908384 1695.192537 C 1204.609438 1695.192537 1421.675335 1580.636541 1560.559717 1402.070907 C 1404.905282 1456.396431 1480.016224 1335.226893 1360.027676 1255.155795 C 919.990934 1135.167247 800.002386 935.107601 839.919836 575.141957 L 440.036742 535.224507 L 365.634394 575.141957 Z M 290.051057 575.141957 " transform="matrix(0.016538,0,0,0.016538,0,0)"/>
<path style="fill-rule:nonzero;fill:url(#linear3);stroke-width:11.338583;stroke-linecap:round;stroke-linejoin:miter;stroke:rgb(20%,20%,20%);stroke-opacity:1;stroke-miterlimit:4;" d="M 959.908384 175.022665 C 636.317221 175.022665 361.382831 375.318509 251.314597 659.22842 C 355.714081 605.375292 474.049244 575.141957 599.94274 575.141957 C 1021.083647 575.141957 1360.027676 914.085986 1360.027676 1335.226893 C 1360.027676 1432.54044 1341.840435 1525.602424 1308.772725 1611.106074 C 1553.47378 1485.212578 1719.99332 1230.355013 1719.99332 935.107601 C 1719.99332 513.966694 1381.049291 175.022665 959.908384 175.022665 Z M 959.908384 175.022665 " transform="matrix(0.016538,0,0,0.016538,0,0)"/>
<path style=" stroke:none;fill-rule:nonzero;fill:rgb(0%,0%,0%);fill-opacity:0.196078;" d="M 15.875 28.035156 C 8.914062 28.035156 3.308594 22.429688 3.308594 15.464844 C 3.308594 15.425781 3.308594 15.382812 3.308594 15.34375 C 3.375 22.246094 8.953125 27.789062 15.875 27.789062 C 22.796875 27.789062 28.378906 22.246094 28.445312 15.34375 C 28.445312 15.382812 28.445312 15.425781 28.445312 15.464844 C 28.445312 22.429688 22.839844 28.035156 15.875 28.035156 Z M 15.875 28.035156 "/>
<path style=" stroke:none;fill-rule:nonzero;fill:rgb(100%,100%,100%);fill-opacity:0.392157;" d="M 15.875 2.894531 C 8.914062 2.894531 3.308594 8.5 3.308594 15.464844 C 3.308594 15.507812 3.308594 15.546875 3.308594 15.589844 C 3.375 8.683594 8.953125 3.140625 15.875 3.140625 C 22.796875 3.140625 28.378906 8.683594 28.445312 15.589844 C 28.445312 15.546875 28.445312 15.507812 28.445312 15.464844 C 28.445312 8.5 22.839844 2.894531 15.875 2.894531 Z M 15.875 2.894531 "/>
<path style=" stroke:none;fill-rule:nonzero;fill:rgb(12.941177%,12.941177%,12.941177%);fill-opacity:1;" d="M 15.875 2.800781 C 8.863281 2.800781 3.214844 8.453125 3.214844 15.464844 C 3.214844 22.476562 8.863281 28.128906 15.875 28.128906 C 22.890625 28.128906 28.539062 22.476562 28.539062 15.464844 C 28.539062 8.453125 22.890625 2.800781 15.875 2.800781 Z M 15.875 2.988281 C 22.789062 2.988281 28.351562 8.550781 28.351562 15.464844 C 28.351562 22.378906 22.789062 27.941406 15.875 27.941406 C 8.964844 27.941406 3.402344 22.378906 3.402344 15.464844 C 3.402344 8.550781 8.964844 2.988281 15.875 2.988281 Z M 15.875 2.988281 "/>
<path style="fill-rule:nonzero;fill:url(#linear4);stroke-width:3;stroke-linecap:square;stroke-linejoin:round;stroke:rgb(20%,20%,20%);stroke-opacity:1;stroke-miterlimit:4;" d="M 275.161223 -84.012509 C 272.224004 -84.012509 269.786737 -95.573905 267.66194 -97.698702 C 265.599637 -99.761005 253.975747 -102.198272 253.975747 -105.135492 C 253.975747 -108.135205 265.599637 -110.572472 267.66194 -112.634775 C 269.786737 -114.759572 272.224004 -126.320968 275.161223 -126.320968 C 278.160937 -126.320968 280.53571 -114.759572 282.660507 -112.634775 C 284.72281 -110.572472 296.3467 -108.135205 296.3467 -105.135492 C 296.3467 -102.198272 284.72281 -99.761005 282.660507 -97.698702 C 280.53571 -95.573905 278.160937 -84.012509 275.161223 -84.012509 Z M 275.161223 -84.012509 " transform="matrix(0.062506,0,0,0.062506,0,13.438783)"/>
<path style="fill-rule:nonzero;fill:url(#linear5);stroke-width:3;stroke-linecap:square;stroke-linejoin:round;stroke:rgb(20%,20%,20%);stroke-opacity:1;stroke-miterlimit:4;" d="M 349.279146 -73.388523 C 346.279432 -73.388523 343.842165 -85.012413 341.779862 -87.074716 C 339.655065 -89.199513 328.093669 -91.636781 328.093669 -94.574 C 328.093669 -97.573714 339.655065 -99.948487 341.779862 -102.073284 C 343.842165 -104.135587 346.279432 -115.759477 349.279146 -115.759477 C 352.216365 -115.759477 354.653632 -104.135587 356.715935 -102.073284 C 358.840732 -99.948487 370.402128 -97.573714 370.402128 -94.574 C 370.402128 -91.636781 358.840732 -89.199513 356.715935 -87.074716 C 354.653632 -85.012413 352.216365 -73.388523 349.279146 -73.388523 Z M 349.279146 -73.388523 " transform="matrix(0.062506,0,0,0.062506,0,13.438783)"/>
<path style="fill-rule:nonzero;fill:url(#linear6);stroke-width:3;stroke-linecap:square;stroke-linejoin:round;stroke:rgb(20%,20%,20%);stroke-opacity:1;stroke-miterlimit:4;" d="M 328.093669 -20.518572 C 325.093955 -20.518572 322.719182 -32.079968 320.594385 -34.204765 C 318.532082 -36.267068 306.908192 -38.704335 306.908192 -41.641555 C 306.908192 -44.641268 318.532082 -47.078536 320.594385 -49.140839 C 322.719182 -51.265636 325.093955 -62.827032 328.093669 -62.827032 C 331.030888 -62.827032 333.468155 -51.265636 335.592952 -49.140839 C 337.655256 -47.078536 349.279146 -44.641268 349.279146 -41.641555 C 349.279146 -38.704335 337.655256 -36.267068 335.592952 -34.204765 C 333.468155 -32.079968 331.030888 -20.518572 328.093669 -20.518572 Z M 328.093669 -20.518572 " transform="matrix(0.062506,0,0,0.062506,0,13.438783)"/>
<path style="fill-rule:nonzero;fill:url(#linear7);stroke-width:3;stroke-linecap:square;stroke-linejoin:round;stroke:rgb(20%,20%,20%);stroke-opacity:1;stroke-miterlimit:4;" d="M 402.149097 0.666905 C 399.211877 0.666905 396.77461 -10.894491 394.712307 -13.019288 C 392.58751 -15.081591 381.026114 -17.518859 381.026114 -20.518572 C 381.026114 -23.455792 392.58751 -25.893059 394.712307 -27.955362 C 396.77461 -30.080159 399.211877 -41.641555 402.149097 -41.641555 C 405.14881 -41.641555 407.586077 -30.080159 409.648381 -27.955362 C 411.773178 -25.893059 423.334574 -23.455792 423.334574 -20.518572 C 423.334574 -17.518859 411.773178 -15.081591 409.648381 -13.019288 C 407.586077 -10.894491 405.14881 0.666905 402.149097 0.666905 Z M 402.149097 0.666905 " transform="matrix(0.062506,0,0,0.062506,0,13.438783)"/>
<path style="fill-rule:nonzero;fill:url(#linear8);stroke-width:3;stroke-linecap:square;stroke-linejoin:round;stroke:rgb(20%,20%,20%);stroke-opacity:1;stroke-miterlimit:4;" d="M 381.026114 64.160841 C 378.0264 64.160841 375.589133 52.599446 373.52683 50.474648 C 371.402033 48.412345 359.840637 45.975078 359.840637 42.975365 C 359.840637 40.038145 371.402033 37.600878 373.52683 35.538575 C 375.589133 33.413778 378.0264 21.852382 381.026114 21.852382 C 383.963333 21.852382 386.400601 33.413778 388.462904 35.538575 C 390.587701 37.600878 402.149097 40.038145 402.149097 42.975365 C 402.149097 45.975078 390.587701 48.412345 388.462904 50.474648 C 386.400601 52.599446 383.963333 64.160841 381.026114 64.160841 Z M 381.026114 64.160841 " transform="matrix(0.062506,0,0,0.062506,0,13.438783)"/>
</g>
</svg>

<svg xmlns="http://www.w3.org/2000/svg" width="32pt" height="32pt" viewBox="0 0 32 32"><defs><radialGradient id="a" gradientUnits="userSpaceOnUse" cx="450.909" cy="189.579" fx="450.909" fy="189.579" r="21.167" gradientTransform="matrix(0 -.07813 -.14064 0 44.523 63.595)"><stop offset="0" stop-opacity=".314"/><stop offset=".222" stop-opacity=".275"/><stop offset="1" stop-opacity="0"/></radialGradient><radialGradient id="b" gradientUnits="userSpaceOnUse" cx="450.909" cy="189.579" fx="450.909" fy="189.579" r="21.167" gradientTransform="matrix(0 .07813 .14064 0 -12.77 -7.527)"><stop offset="0" stop-opacity=".314"/><stop offset=".222" stop-opacity=".275"/><stop offset="1" stop-opacity="0"/></radialGradient><radialGradient id="c" gradientUnits="userSpaceOnUse" cx="450.909" cy="189.579" fx="450.909" fy="189.579" r="21.167" gradientTransform="matrix(0 -.07813 .14064 0 -12.77 63.595)"><stop offset="0" stop-opacity=".314"/><stop offset=".222" stop-opacity=".275"/><stop offset="1" stop-opacity="0"/></radialGradient><radialGradient id="d" gradientUnits="userSpaceOnUse" cx="450.909" cy="189.579" fx="450.909" fy="189.579" r="21.167" gradientTransform="matrix(0 .07813 -.14064 0 44.523 -7.527)"><stop offset="0" stop-opacity=".314"/><stop offset=".222" stop-opacity=".275"/><stop offset="1" stop-opacity="0"/></radialGradient><linearGradient id="e" gradientUnits="userSpaceOnUse" x1="255.323" y1="233.5" x2="255.323" y2="254.667" gradientTransform="matrix(.01336 0 0 .0625 12.465 13.439)"><stop offset="0" stop-opacity=".275"/><stop offset="1" stop-opacity="0"/></linearGradient><linearGradient id="f" gradientUnits="userSpaceOnUse" x1="254" y1="-168.667" x2="254" y2="233.5"><stop offset="0" stop-color="#aed581"/><stop offset="1" stop-color="#9ccc65"/></linearGradient><linearGradient id="g" gradientUnits="userSpaceOnUse" x1="960" y1="1695.118" x2="960" y2="335.118"><stop offset="0" stop-color="#42a5f5"/><stop offset="1" stop-color="#64b5f6"/></linearGradient><linearGradient id="h" gradientUnits="userSpaceOnUse" x1="1320" y1="1695.118" x2="1320" y2="175.118"><stop offset="0" stop-color="#546e7a"/><stop offset="1" stop-color="#607d8b"/></linearGradient><linearGradient id="i" gradientUnits="userSpaceOnUse" x1="275.167" y1="-84" x2="275.167" y2="-126.333"><stop offset="0" stop-color="#e0e0e0"/><stop offset="1" stop-color="#eee"/></linearGradient><linearGradient id="j" gradientUnits="userSpaceOnUse" x1="275.167" y1="-84" x2="275.167" y2="-126.333" gradientTransform="translate(74.083 10.583)"><stop offset="0" stop-color="#e0e0e0"/><stop offset="1" stop-color="#eee"/></linearGradient><linearGradient id="k" gradientUnits="userSpaceOnUse" x1="275.167" y1="-84" x2="275.167" y2="-126.333" gradientTransform="translate(52.917 63.5)"><stop offset="0" stop-color="#e0e0e0"/><stop offset="1" stop-color="#eee"/></linearGradient><linearGradient id="l" gradientUnits="userSpaceOnUse" x1="275.167" y1="-84" x2="275.167" y2="-126.333" gradientTransform="translate(127 84.667)"><stop offset="0" stop-color="#e0e0e0"/><stop offset="1" stop-color="#eee"/></linearGradient><linearGradient id="m" gradientUnits="userSpaceOnUse" x1="275.167" y1="-84" x2="275.167" y2="-126.333" gradientTransform="translate(105.833 148.167)"><stop offset="0" stop-color="#e0e0e0"/><stop offset="1" stop-color="#eee"/></linearGradient></defs><path d="M18.191 28.035h2.649v-1.324H18.19zm0 0" fill="url(#a)"/><path d="M13.563 28.035h-2.649v1.32h2.649zm0 0" fill="url(#b)"/><path d="M13.563 28.035h-2.649v-1.324h2.649zm0 0" fill="url(#c)"/><path d="M18.191 28.035h2.649v1.32H18.19zm0 0" fill="url(#d)"/><path d="M13.563 27.703h4.628v1.652h-4.628zm0 0" fill="url(#e)"/><path d="M253.976-168.692c111.052 0 201.106 90.054 201.106 201.106 0 111.052-90.054 201.106-201.106 201.106-111.052 0-201.044-90.054-201.044-201.106 0-111.052 89.992-201.106 201.044-201.106zm0 0" transform="matrix(.0625 0 0 .0625 0 13.439)" fill="url(#f)" stroke-width="3" stroke-linecap="round" stroke="#333"/><path d="M290.051 575.142a749.8 749.8 0 0 0-77.237 219.664c166.756 75.111 387.129 60.23 353.116 205.492-85.976 254.858 194.155 334.929 273.99 334.929 197.934 43.933 40.153 249.897 119.988 359.966 244.701 0 461.767-114.556 600.652-293.122-155.655 54.325-80.544-66.844-200.532-146.915C919.99 1135.167 800.002 935.108 839.92 575.142l-399.883-39.917-74.403 39.917zm0 0" transform="rotate(.891) scale(.01654)" fill="url(#g)" stroke-width="11.339" stroke-linecap="round" stroke="#333"/><path d="M959.908 175.023c-323.59 0-598.525 200.296-708.593 484.205 104.4-53.853 222.734-84.086 348.628-84.086 421.14 0 760.085 338.944 760.085 760.085 0 97.313-18.188 190.375-51.255 275.88 244.7-125.894 411.22-380.752 411.22-676 0-421.14-338.944-760.084-760.085-760.084zm0 0" transform="rotate(.891) scale(.01654)" fill="url(#h)" stroke-width="11.339" stroke-linecap="round" stroke="#333"/><path d="M15.875 28.035a12.54 12.54 0 0 1-12.566-12.57v-.121a12.542 12.542 0 0 0 12.566 12.445 12.545 12.545 0 0 0 12.57-12.445v.12c0 6.966-5.605 12.571-12.57 12.571zm0 0" fill-opacity=".196"/><path d="M15.875 2.895A12.54 12.54 0 0 0 3.309 15.59 12.543 12.543 0 0 1 15.875 3.14a12.546 12.546 0 0 1 12.57 12.45v-.125c0-6.965-5.605-12.57-12.57-12.57zm0 0" fill="#fff" fill-opacity=".392"/><path d="M15.875 2.8a12.638 12.638 0 0 0-12.66 12.665 12.638 12.638 0 0 0 12.66 12.664 12.64 12.64 0 0 0 12.664-12.664A12.64 12.64 0 0 0 15.875 2.8zm0 .188a12.447 12.447 0 0 1 12.477 12.477A12.447 12.447 0 0 1 15.875 27.94 12.446 12.446 0 0 1 3.402 15.465 12.446 12.446 0 0 1 15.875 2.988zm0 0" fill="#212121"/><path d="M275.161-84.013c-2.937 0-5.374-11.56-7.5-13.686-2.061-2.062-13.685-4.5-13.685-7.436 0-3 11.624-5.437 13.686-7.5 2.125-2.125 4.562-13.686 7.5-13.686 2.999 0 5.374 11.561 7.499 13.686 2.062 2.063 13.686 4.5 13.686 7.5 0 2.937-11.624 5.374-13.686 7.436-2.125 2.125-4.5 13.686-7.5 13.686zm0 0" transform="matrix(.0625 0 0 .0625 0 13.439)" fill="url(#i)" stroke-width="3" stroke-linecap="square" stroke-linejoin="round" stroke="#333"/><path d="M349.28-73.389c-3 0-5.438-11.623-7.5-13.686-2.125-2.125-13.686-4.562-13.686-7.499 0-3 11.561-5.374 13.686-7.5 2.062-2.062 4.5-13.685 7.5-13.685 2.936 0 5.374 11.623 7.436 13.686 2.125 2.125 13.686 4.5 13.686 7.499 0 2.937-11.561 5.374-13.686 7.5-2.062 2.062-4.5 13.685-7.437 13.685zm0 0" transform="matrix(.0625 0 0 .0625 0 13.439)" fill="url(#j)" stroke-width="3" stroke-linecap="square" stroke-linejoin="round" stroke="#333"/><path d="M328.094-20.519c-3 0-5.375-11.561-7.5-13.686-2.062-2.062-13.686-4.5-13.686-7.437 0-3 11.624-5.437 13.686-7.499 2.125-2.125 4.5-13.686 7.5-13.686 2.937 0 5.374 11.561 7.499 13.686 2.062 2.062 13.686 4.5 13.686 7.5 0 2.937-11.624 5.374-13.686 7.436-2.125 2.125-4.562 13.686-7.5 13.686zm0 0" transform="matrix(.0625 0 0 .0625 0 13.439)" fill="url(#k)" stroke-width="3" stroke-linecap="square" stroke-linejoin="round" stroke="#333"/><path d="M402.15.667c-2.938 0-5.375-11.561-7.438-13.686-2.124-2.063-13.686-4.5-13.686-7.5 0-2.937 11.562-5.374 13.686-7.436 2.063-2.125 4.5-13.687 7.437-13.687 3 0 5.437 11.562 7.5 13.687 2.124 2.062 13.686 4.5 13.686 7.436 0 3-11.562 5.437-13.687 7.5-2.062 2.125-4.5 13.686-7.499 13.686zm0 0" transform="matrix(.0625 0 0 .0625 0 13.439)" fill="url(#l)" stroke-width="3" stroke-linecap="square" stroke-linejoin="round" stroke="#333"/><path d="M381.026 64.16c-3 0-5.437-11.56-7.5-13.685-2.124-2.063-13.685-4.5-13.685-7.5 0-2.937 11.561-5.374 13.686-7.436 2.062-2.125 4.5-13.687 7.5-13.687 2.936 0 5.374 11.562 7.436 13.687 2.125 2.062 13.686 4.5 13.686 7.436 0 3-11.561 5.437-13.686 7.5-2.062 2.124-4.5 13.686-7.437 13.686zm0 0" transform="matrix(.0625 0 0 .0625 0 13.439)" fill="url(#m)" stroke-width="3" stroke-linecap="square" stroke-linejoin="round" stroke="#333"/></svg>
